src/images/svg-to-icon-sprite/open-mail-icon.svg

<svg width="46" height="46" viewBox="0 0 46 46" fill="none" xmlns="http://www.w3.org/2000/svg">
<g clip-path="url(#clip0_2905_1928)">
<path d="M11.84 7.35973H22.84C23.28 7.35973 23.66 6.99973 23.66 6.53973C23.66 6.07973 23.3 5.71973 22.84 5.71973H11.84C11.38 5.71973 11.02 6.07973 11.02 6.53973C11.02 6.99973 11.38 7.35973 11.84 7.35973Z" fill="white"/>
<path d="M11.84 18.4798H33.86C34.3 18.4798 34.68 18.1198 34.68 17.6598C34.68 17.2198 34.3 16.8398 33.86 16.8398H11.84C11.38 16.8398 11.02 17.2198 11.02 17.6598C11.02 18.1198 11.38 18.4798 11.84 18.4798Z" fill="white"/>
<path d="M11.84 12.9798H22.84C23.28 12.9798 23.66 12.6198 23.66 12.1598C23.66 11.6998 23.3 11.3398 22.84 11.3398H11.84C11.38 11.3398 11.02 11.6998 11.02 12.1598C11.02 12.5998 11.38 12.9798 11.84 12.9798Z" fill="white"/>
<path d="M45.68 17.6598C45.68 17.4398 45.56 17.2398 45.4 17.0798C45.38 17.0598 45.38 17.0198 45.36 17.0198L40.16 12.9998V1.13982C40.16 0.679824 39.8 0.319824 39.36 0.319824H6.32C5.88 0.319824 5.5 0.679824 5.5 1.13982V12.9798L0.3 16.9998C0.3 17.0198 0.3 17.0598 0.28 17.0798C0.12 17.2398 0 17.4198 0 17.6598V45.1798C0 45.2398 0.04 45.2798 0.04 45.3198C0.04 45.3598 0.02 45.3998 0.04 45.4398C0.06 45.4598 0.08 45.4798 0.1 45.4998C0.14 45.5998 0.2 45.6598 0.28 45.7398C0.32 45.7798 0.36 45.8198 0.42 45.8598C0.44 45.8798 0.46 45.8998 0.48 45.9198C0.6 45.9798 0.72 45.9998 0.84 45.9998H44.88C45 45.9998 45.12 45.9798 45.24 45.9198C45.26 45.8998 45.28 45.8798 45.3 45.8598C45.36 45.8198 45.38 45.7798 45.44 45.7398C45.5 45.6598 45.56 45.5998 45.6 45.4998C45.62 45.4798 45.64 45.4598 45.66 45.4398C45.68 45.3998 45.66 45.3598 45.66 45.3198C45.66 45.2598 45.7 45.2198 45.7 45.1798V17.6598H45.68ZM44.04 19.3398V43.5198L28.44 31.4198L44.04 19.3398ZM43.52 17.6598L40.16 20.2598V15.0598L43.52 17.6598ZM7.14 1.95982H38.52V13.3798V21.5198L28.58 29.2198L22.82 33.6798L17.06 29.2198L7.14 21.5198V13.3798V1.95982ZM1.64 19.3398L17.22 31.4198L1.64 43.5198V19.3398ZM5.5 15.0598V20.2598L2.16 17.6598L5.5 15.0598ZM3.22 44.3598L18.58 32.4398L22.34 35.3598C22.48 35.4798 22.66 35.5398 22.84 35.5398C23.02 35.5398 23.2 35.4798 23.34 35.3598L27.1 32.4398L42.46 44.3598H3.22Z" fill="white"/>
</g>
<defs>
<clipPath id="clip0_2905_1928">
<rect width="45.68" height="45.68" fill="white" transform="translate(0 0.319824)"/>
</clipPath>
</defs>
</svg>

<svg width="46" height="46" fill="none" xmlns="http://www.w3.org/2000/svg"><g clip-path="url(#a)" fill="#fff"><path d="M11.84 7.36h11c.44 0 .82-.36.82-.82 0-.46-.36-.82-.82-.82h-11c-.46 0-.82.36-.82.82 0 .46.36.82.82.82ZM11.84 18.48h22.02c.44 0 .82-.36.82-.82 0-.44-.38-.82-.82-.82H11.84c-.46 0-.82.38-.82.82 0 .46.36.82.82.82ZM11.84 12.98h11c.44 0 .82-.36.82-.82 0-.46-.36-.82-.82-.82h-11c-.46 0-.82.36-.82.82 0 .44.36.82.82.82Z"/><path d="M45.68 17.66c0-.22-.12-.42-.28-.58-.02-.02-.02-.06-.04-.06L40.16 13V1.14c0-.46-.36-.82-.8-.82H6.32c-.44 0-.82.36-.82.82v11.84L.3 17c0 .02 0 .06-.02.08-.16.16-.28.34-.28.58v27.52c0 .06.04.1.04.14 0 .04-.02.08 0 .12l.06.06c.04.1.1.16.18.24.04.04.08.08.14.12l.06.06c.12.06.24.08.36.08h44.04c.12 0 .24-.02.36-.08l.06-.06c.06-.04.08-.08.14-.12.06-.08.12-.14.16-.24l.06-.06c.02-.04 0-.08 0-.12 0-.06.04-.1.04-.14V17.66h-.02Zm-1.64 1.68v24.18l-15.6-12.1 15.6-12.08Zm-.52-1.68-3.36 2.6v-5.2l3.36 2.6ZM7.14 1.96h31.38V21.52l-9.94 7.7-5.76 4.46-5.76-4.46-9.92-7.7V1.96Zm-5.5 17.38 15.58 12.08-15.58 12.1V19.34Zm3.86-4.28v5.2l-3.34-2.6 3.34-2.6Zm-2.28 29.3 15.36-11.92 3.76 2.92c.14.12.32.18.5.18s.36-.06.5-.18l3.76-2.92 15.36 11.92H3.22Z"/></g><defs><clipPath id="a"><path fill="#fff" transform="translate(0 .32)" d="M0 0h45.68v45.68H0z"/></clipPath></defs></svg>
